src/assets/rss3.svg

<svg fill="none" height="48" viewBox="0 0 48 48" width="48" xmlns="http://www.w3.org/2000/svg"><rect fill="#0072ff" height="48" rx="24" width="48"/><g fill="#fff"><path d="m32.0604 24.891c-.5627-.8355-1.9198-1.2803-2.891-1.5425-.1132-.0298-.231-.0596-.3561-.0907h-.0099c-.523-.1324-1.1168-.2787-1.5789-.5296-.5296-.2899-.7891-.6659-.7891-1.1492-.0006-.0784.0068-.1567.0218-.2337v-.0139c.0075-.0355.0168-.0706.0278-.1052.0013-.0048.0028-.0094.0047-.0139v-.0053c.0684-.2005.1832-.3819.335-.5296.3925-.3972 1.0188-.6203 1.7211-.6203h.0219c.5171.0114 1.0261.1311 1.4941.3515.4676.2123.8903.512 1.2452.8831l.0086 1.0069v.0106h.8739v-3.032h-.8719v.6872c0 .005-.0013.01-.0037.0144s-.0059.0081-.0102.0108c-.0079 0-.0185-.0053-.0238-.0106-.3692-.2807-.78-.5021-1.2174-.6561-.4691-.1606-.9607-.2459-1.4564-.2529-.5687 0-1.0334.0662-1.4213.1927-.3226.1075-.6224.2743-.8838.4918-.2841.2221-.5124.5075-.6666.8335-.1491.3141-.2273.6572-.2291 1.0049-.0042.2059.0214.4112.0762.6097.0675.2197.168.428.2979.6176.0112.0179.0245.0351.0364.0523.0119.0173.0125.0166.0185.0252l.008.0106c.5726.7911 1.8509 1.1413 2.7836 1.3988l.0259.0066.2072.0576.2244.0602c.4861.119.9617.2776 1.4219.474.2403.1058.4523.2666.619.4694.1543.188.2588.4118.3039.6507.0437.2383.0257.4837-.0523.713-.0915.264-.2432.5031-.4429.6984-.2191.1951-.4763.3425-.7553.433-.2714.0875-.5533.138-.8381.1502-.4559.022-.9124-.0296-1.3518-.1529-.7448-.2357-1.4246-.6905-1.8655-1.2459-.0147-.018-.0257-.0386-.0325-.0609l-.0086-.8659v-.0112h-.8738v3.1696h.8745v-.9268c.3652.3214.7885.57 1.2472.7322.5362.1978 1.1015.3056 1.6729.3191h.0708c.4852 0 1.6205 0 2.5109-.754.2465-.2134.4507-.4712.6018-.76.1453-.2781.2401-.5798.28-.8911.0407-.2981.0268-.6012-.041-.8943-.0641-.2853-.1882-.5536-.3641-.7871z"/><path d="m23.4299 24.8912c-.5514-.8314-1.9138-1.2783-2.8909-1.5418-.1112-.0291-.2264-.0575-.3489-.088-1.0592-.2615-2.3779-.5878-2.3931-1.6848 0-.1652.035-.3285.1026-.4793.073-.1583.1744-.3019.2993-.4236.3971-.3919 1.0201-.617 1.7172-.617h.0218c.5168.0112 1.0254.1309 1.4928.3515.4657.2119.886.5118 1.2379.8831l.0172 1.0069v.0113h.8739v-3.032h-.8719v.6872c0 .0049-.0012.0098-.0035.0141-.0023.0044-.0057.0082-.0097.011-.0066 0-.0146 0-.0245-.0106-.3692-.2806-.7799-.502-1.2174-.656-.4691-.1606-.9606-.2459-1.4564-.2529-.572 0-1.038.0662-1.4246.1927-.3215.1077-.6201.2746-.8805.4918-.2841.2221-.5124.5075-.6666.8335-.1499.3148-.2285.6588-.2304 1.0075-.0042.2056.021.4106.0748.6091.0661.2182.1638.4257.29.6156.5488.8553 1.8913 1.2227 2.8717 1.4915l.0232.0059.1946.0537.2052.0549.0192.0053c.4862.1189.9618.2774 1.422.474.2411.1075.4541.2692.6223.4727.1549.19.2598.4157.3052.6567.0431.2386.0244.4843-.0543.7136-.0923.2638-.2449.5025-.4455.6971-.2177.1945-.4739.3409-.7521.4296-.272.0871-.5546.1365-.84.147-.059 0-.1205.0039-.1828.0039-.3989.001-.7961-.0531-1.1803-.1608-.0443-.0139-.0894-.0292-.1324-.045h-.0066c-.0894-.0318-.1787-.0662-.2648-.1066-.432-.1894-.8271-.4536-1.1671-.7805l-.0172-.0166c-.053-.0529-.1066-.1092-.1582-.1681l-.0397-.0457c-.0232-.0271-.0457-.0536-.0662-.0814-.0143-.0179-.0251-.0384-.0318-.0603l-.0086-.8658v-.0113h-.8864v3.1696h.8831v-.9268c.3652.3215.7885.57 1.2472.7322.5362.1978 1.1014.3056 1.6728.3191h.0709c.4825 0 1.6126 0 2.5109-.754.2465-.2133.4506-.4711.6017-.76.1453-.2763.2406-.5762.2814-.8857.0407-.2982.0268-.6012-.041-.8944-.0639-.2874-.1885-.5578-.3655-.7931z"/><path d="m14.468 28.0984-2.3885-3.6112c.4047.0155.8075-.0626 1.177-.2284.5224-.2647.9421-.6004 1.1996-1.0969.2093-.4099.3178-.8638.3164-1.324-.0005-.7239-.2858-1.4185-.7944-1.9337-.5521-.5004-1.2412-.744-2.1078-.744h-4.62799v.9989h.9824v7.9512h-1.06846v.8355h3.10145v-.8355h-.99895v-3.6085h1.67155l2.3401 3.6085h-1.0631v.8355h3.3378v-.8355h-1.044c-.006.0004-.0121-.0004-.0178-.0025-.0057-.002-.0109-.0052-.0153-.0094zm-5.20925-7.9843h2.55995c.7864 0 1.3902.3125 1.696.8493.1473.2696.2222.5727.2173.8799-.0049.3071-.0893.6077-.2451.8724-.3138.5296-.6845.8222-1.5067.8222h-2.72145z"/><path d="m40.4399 26.0532c0-1.1988-.6057-2.0647-1.6106-2.4361.852-.4475 1.228-1.1836 1.228-1.9416 0-1.7497-1.4676-2.6765-3.3814-2.6765-1.0447.008-2.1581.3555-2.9188 1.4233l.7944.5184c.4257-.5727 1.0321-1.0149 2.1244-1.0149 1.3901 0 2.3765.5647 2.3765 1.6398 0 1.03-.989 1.604-2.0019 1.604h-1.3795v.993h1.4596c1.2916 0 2.3124.6957 2.2806 1.8794-.0722 1.2578-1.1803 1.9337-2.6314 1.9337-.9334 0-1.9701-.2939-2.744-1.1214l-.0397-.0153-.6779.7421.0318.008c.9731.9129 2.1296 1.3849 3.4298 1.3849 2.0018-.004 3.6601-1.087 3.6601-2.9208z"/><path d="m6.51426 23.5329h-2.51426v1.0268h2.51426z"/><path d="m44.0006 23.5332h-2.5143v1.0268h2.5143z"/></g></svg>

<svg xmlns="http://www.w3.org/2000/svg" width="48" height="48" fill="none" viewBox="0 0 48 48">
    <rect width="48" height="48" fill="#0072FF" rx="24"/>
    <path fill="white" d="M32.0604 24.891C31.4977 24.0555 30.1406 23.6107 29.1694 23.3485C29.0562 23.3187 28.9384 23.2889 28.8133 23.2578H28.8034C28.2804 23.1254 27.6866 22.9791 27.2245 22.7282C26.6949 22.4383 26.4354 22.0623 26.4354 21.579C26.4348 21.5006 26.4422 21.4223 26.4572 21.3453V21.3314C26.4647 21.2959 26.474 21.2608 26.485 21.2262C26.4863 21.2214 26.4878 21.2168 26.4897 21.2123V21.207C26.5581 21.0065 26.6729 20.8251 26.8247 20.6774C27.2172 20.2802 27.8435 20.0571 28.5458 20.0571H28.5677C29.0848 20.0685 29.5938 20.1882 30.0618 20.4086C30.5294 20.6209 30.9521 20.9206 31.307 21.2917L31.3156 22.2986V22.3092H32.1895V19.2772H31.3176V19.9644C31.3176 19.9694 31.3163 19.9744 31.3139 19.9788C31.3115 19.9832 31.308 19.9869 31.3037 19.9896C31.2958 19.9896 31.2852 19.9843 31.2799 19.979C30.9107 19.6983 30.4999 19.4769 30.0625 19.3229C29.5934 19.1623 29.1018 19.077 28.6061 19.07C28.0374 19.07 27.5727 19.1362 27.1848 19.2627C26.8622 19.3702 26.5624 19.537 26.301 19.7545C26.0169 19.9766 25.7886 20.262 25.6344 20.588C25.4853 20.9021 25.4071 21.2452 25.4053 21.5929C25.4011 21.7988 25.4267 22.0041 25.4815 22.2026C25.549 22.4223 25.6495 22.6306 25.7794 22.8202C25.7906 22.8381 25.8039 22.8553 25.8158 22.8725C25.8277 22.8898 25.8283 22.8891 25.8343 22.8977L25.8423 22.9083C26.4149 23.6994 27.6932 24.0496 28.6259 24.3071L28.6518 24.3137L28.859 24.3713L29.0834 24.4315C29.5695 24.5505 30.0451 24.7091 30.5053 24.9055C30.7456 25.0113 30.9576 25.1721 31.1243 25.3749C31.2786 25.5629 31.3831 25.7867 31.4282 26.0256C31.4719 26.2639 31.4539 26.5093 31.3759 26.7386C31.2844 27.0026 31.1327 27.2417 30.933 27.437C30.7139 27.6321 30.4567 27.7795 30.1777 27.87C29.9063 27.9575 29.6244 28.008 29.3396 28.0202C28.8837 28.0422 28.4272 27.9906 27.9878 27.8673C27.243 27.6316 26.5632 27.1768 26.1223 26.6214C26.1076 26.6034 26.0966 26.5828 26.0898 26.5605L26.0812 25.6946V25.6834H25.2074V28.853H26.0819V27.9262C26.4471 28.2476 26.8704 28.4962 27.3291 28.6584C27.8653 28.8562 28.4306 28.964 29.002 28.9775H29.0728C29.558 28.9775 30.6933 28.9775 31.5837 28.2235C31.8302 28.0101 32.0344 27.7523 32.1855 27.4635C32.3308 27.1854 32.4256 26.8837 32.4655 26.5724C32.5062 26.2743 32.4923 25.9712 32.4245 25.6781C32.3604 25.3928 32.2363 25.1245 32.0604 24.891Z"/>
    <path fill="white" d="M23.4299 24.8912C22.8785 24.0598 21.5161 23.6129 20.539 23.3494C20.4278 23.3203 20.3126 23.2919 20.1901 23.2614C19.1309 22.9999 17.8122 22.6736 17.797 21.5766C17.797 21.4114 17.832 21.2481 17.8996 21.0973C17.9726 20.939 18.074 20.7954 18.1989 20.6737C18.596 20.2818 19.219 20.0567 19.9161 20.0567H19.9379C20.4547 20.0679 20.9633 20.1876 21.4307 20.4082C21.8964 20.6201 22.3167 20.92 22.6686 21.2913L22.6858 22.2982V22.3095H23.5597V19.2775H22.6878V19.9647C22.6878 19.9696 22.6866 19.9745 22.6843 19.9788C22.682 19.9832 22.6786 19.987 22.6746 19.9898C22.668 19.9898 22.66 19.9898 22.6501 19.9792C22.2809 19.6986 21.8702 19.4772 21.4327 19.3232C20.9636 19.1626 20.4721 19.0773 19.9763 19.0703C19.4043 19.0703 18.9383 19.1365 18.5517 19.263C18.2302 19.3707 17.9316 19.5376 17.6712 19.7548C17.3871 19.9769 17.1588 20.2623 17.0046 20.5883C16.8547 20.9031 16.7761 21.2471 16.7742 21.5958C16.77 21.8014 16.7952 22.0064 16.849 22.2049C16.9151 22.4231 17.0128 22.6306 17.139 22.8205C17.6878 23.6758 19.0303 24.0432 20.0107 24.312L20.0339 24.3179L20.2285 24.3716L20.4337 24.4265L20.4529 24.4318C20.9391 24.5507 21.4147 24.7092 21.8749 24.9058C22.116 25.0133 22.329 25.175 22.4972 25.3785C22.6521 25.5685 22.757 25.7942 22.8024 26.0352C22.8455 26.2738 22.8268 26.5195 22.7481 26.7488C22.6558 27.0126 22.5032 27.2513 22.3026 27.4459C22.0849 27.6404 21.8287 27.7868 21.5505 27.8755C21.2785 27.9626 20.9959 28.012 20.7105 28.0225C20.6515 28.0225 20.59 28.0264 20.5277 28.0264C20.1288 28.0274 19.7316 27.9733 19.3474 27.8656C19.3031 27.8517 19.258 27.8364 19.215 27.8206H19.2084C19.119 27.7888 19.0297 27.7544 18.9436 27.714C18.5116 27.5246 18.1165 27.2604 17.7765 26.9335L17.7593 26.9169C17.7063 26.864 17.6527 26.8077 17.6011 26.7488L17.5614 26.7031C17.5382 26.676 17.5157 26.6495 17.4952 26.6217C17.4809 26.6038 17.4701 26.5833 17.4634 26.5614L17.4548 25.6956V25.6843H16.5684V28.8539H17.4515V27.9271C17.8167 28.2486 18.24 28.4971 18.6987 28.6593C19.2349 28.8571 19.8001 28.9649 20.3715 28.9784H20.4424C20.9249 28.9784 22.055 28.9784 22.9533 28.2244C23.1998 28.0111 23.4039 27.7533 23.555 27.4644C23.7003 27.1881 23.7956 26.8882 23.8364 26.5787C23.8771 26.2805 23.8632 25.9775 23.7954 25.6843C23.7315 25.3969 23.6069 25.1265 23.4299 24.8912Z"/>
    <path fill="white" d="M14.468 28.0984L12.0795 24.4872C12.4842 24.5027 12.887 24.4246 13.2565 24.2588C13.7789 23.9941 14.1986 23.6584 14.4561 23.1619C14.6654 22.752 14.7739 22.2981 14.7725 21.8379C14.772 21.114 14.4867 20.4194 13.9781 19.9042C13.426 19.4038 12.7369 19.1602 11.8703 19.1602H7.24231V20.1591H8.22471V28.1103H7.15625V28.9458H10.2577V28.1103H9.25875V24.5018H10.9303L13.2704 28.1103H12.2073V28.9458H15.5451V28.1103H14.5011C14.4951 28.1107 14.489 28.1099 14.4833 28.1078C14.4776 28.1058 14.4724 28.1026 14.468 28.0984ZM9.25875 20.1141H11.8187C12.6051 20.1141 13.2089 20.4266 13.5147 20.9634C13.662 21.233 13.7369 21.5361 13.732 21.8433C13.7271 22.1504 13.6427 22.451 13.4869 22.7157C13.1731 23.2453 12.8024 23.5379 11.9802 23.5379H9.25875V20.1141Z"/>
    <path fill="white" d="M40.4399 26.0532C40.4399 24.8544 39.8342 23.9885 38.8293 23.6171C39.6813 23.1696 40.0573 22.4335 40.0573 21.6755C40.0573 19.9258 38.5897 18.999 36.6759 18.999C35.6312 19.007 34.5178 19.3545 33.7571 20.4223L34.5515 20.9407C34.9772 20.368 35.5836 19.9258 36.6759 19.9258C38.066 19.9258 39.0524 20.4905 39.0524 21.5656C39.0524 22.5956 38.0634 23.1696 37.0505 23.1696H35.671V24.1626H37.1306C38.4222 24.1626 39.443 24.8583 39.4112 26.042C39.339 27.2998 38.2309 27.9757 36.7798 27.9757C35.8464 27.9757 34.8097 27.6818 34.0358 26.8543L33.9961 26.839L33.3182 27.5811L33.35 27.5891C34.3231 28.502 35.4796 28.974 36.7798 28.974C38.7816 28.97 40.4399 27.887 40.4399 26.0532Z"/>
    <path fill="white" d="M6.51426 23.5329H4V24.5597H6.51426V23.5329Z"/>
    <path fill="white" d="M44.0006 23.5332H41.4863V24.56H44.0006V23.5332Z"/>
</svg>
